assets/img/braze_icons/shopping-bag-03.svg

<svg fill="none" height="24" viewBox="0 0 24 24" width="24" xmlns="http://www.w3.org/2000/svg"><path clip-rule="evenodd" d="m8.37735 2h7.24535c.7455-.00001 1.363-.00002 1.8687.03982.5269.04151 1.012.13055 1.4747.35198.7211.345 1.3222.89812 1.7259 1.58801.2591.44277.3881.91875.4732 1.44037.0817.50068.133 1.116.1949 1.85898l.7068 8.48224c.0722.8657.1315 1.5776.1309 2.1581-.0006.6008-.0629 1.1576-.2946 1.6861-.3573.8153-.9764 1.4882-1.7593 1.912-.5075.2747-1.0571.3831-1.6558.4336-.5785.0488-1.2928.0488-2.1615.0488h-8.6532c-.86863 0-1.58299 0-2.16144-.0488-.59875-.0505-1.14838-.1589-1.65583-.4336-.78288-.4238-1.402-1.0967-1.75933-1.912-.23163-.5285-.29401-1.0853-.29461-1.6861-.00058-.5806.05876-1.2924.13091-2.1581l.70685-8.48224c.06191-.74301.11317-1.35828.19488-1.85899.08511-.52161.21413-.99759.47322-1.44036.4037-.68989 1.00482-1.24301 1.72585-1.58802.46276-.22142.94781-.31046 1.47469-.35197.50576-.03984 1.12318-.03983 1.86876-.03982zm.62265 6c0-.55228-.44772-1-1-1s-1 .44772-1 1c0 1.32608.52678 2.5979 1.46447 3.5355.93768.9377 2.20943 1.4645 3.53553 1.4645s2.5979-.5268 3.5355-1.4645c.9377-.9376 1.4645-2.20942 1.4645-3.5355 0-.55228-.4477-1-1-1s-1 .44772-1 1c0 .79565-.3161 1.55871-.8787 2.1213-.5626.5626-1.3257.8787-2.1213.8787s-1.5587-.3161-2.12132-.8787c-.56261-.56259-.87868-1.32565-.87868-2.1213z" fill="#801ed7" fill-rule="evenodd"/></svg>

<svg width="24" height="24" viewBox="0 0 24 24" fill="none" xmlns="http://www.w3.org/2000/svg">
<path fill-rule="evenodd" clip-rule="evenodd" d="M8.37735 2H15.6227C16.3682 1.99999 16.9857 1.99998 17.4914 2.03982C18.0183 2.08133 18.5034 2.17037 18.9661 2.3918C19.6872 2.7368 20.2883 3.28992 20.692 3.97981C20.9511 4.42258 21.0801 4.89856 21.1652 5.42018C21.2469 5.92086 21.2982 6.53618 21.3601 7.27916L22.0669 15.7614C22.1391 16.6271 22.1984 17.339 22.1978 17.9195C22.1972 18.5203 22.1349 19.0771 21.9032 19.6056C21.5459 20.4209 20.9268 21.0938 20.1439 21.5176C19.6364 21.7923 19.0868 21.9007 18.4881 21.9512C17.9096 22 17.1953 22 16.3266 22H7.6734C6.80477 22 6.09041 22 5.51196 21.9512C4.91321 21.9007 4.36358 21.7923 3.85613 21.5176C3.07325 21.0938 2.45413 20.4209 2.0968 19.6056C1.86517 19.0771 1.80279 18.5203 1.80219 17.9195C1.80161 17.3389 1.86095 16.6271 1.9331 15.7614L2.63995 7.27916C2.70186 6.53615 2.75312 5.92088 2.83483 5.42017C2.91994 4.89856 3.04896 4.42258 3.30805 3.97981C3.71175 3.28992 4.31287 2.7368 5.0339 2.39179C5.49666 2.17037 5.98171 2.08133 6.50859 2.03982C7.01435 1.99998 7.63177 1.99999 8.37735 2ZM9 8C9 7.44772 8.55228 7 8 7C7.44772 7 7 7.44772 7 8C7 9.32608 7.52678 10.5979 8.46447 11.5355C9.40215 12.4732 10.6739 13 12 13C13.3261 13 14.5979 12.4732 15.5355 11.5355C16.4732 10.5979 17 9.32608 17 8C17 7.44772 16.5523 7 16 7C15.4477 7 15 7.44772 15 8C15 8.79565 14.6839 9.55871 14.1213 10.1213C13.5587 10.6839 12.7956 11 12 11C11.2044 11 10.4413 10.6839 9.87868 10.1213C9.31607 9.55871 9 8.79565 9 8Z" fill="#801ED7"/>
</svg>
